X: 01040
T: DREESEY'S WALTZ
C: Bob McQuillen May'74
B: Bob's Note Book 1 #40
%R: waltz
Z: 2019 John Chambers <jc:trillian.mit.edu>
N: Double thin-bars added to mark the 8-bar phrases, for better readability.
M: 3/4
L: 1/8
K: G
D2 \
| G4D2 | G4A2 | B4G2 | B4A2 \
| G4G2 | EG4-G | D6- | D4D2 |\
| G4D2 | G4A2 | B4A2 | GB4-B \
| c4B2 | AG4-G | A6- | A4 ||
D2 \
| G4D2 | G4A2 | B4A2 | B4c2 \
| d4d2 | eg4-g | d6- | d4d2 |\
| e4g2 | d4e2 | dB4-B | A4B2 \
| G4B2 | A4G2 | G6- | G4 |]
[| GA\
| B4G2 | B4c2 | de4-e | d4B2 \
| AG4-G | EG4-G | G6- | G4GA |\
| B4G2 | B4c2 | d4B2 | G4B2 \
| A4B2 | cB4-B | A6 | B4 ||
c2 \
| d4g2 | e4g2 | d4B2 | G4G2 \
| A4G2 | E4G2 | D6- | D4D2 |\
| G4D2 | G4A2 | B4A2 | B4c2 \
| dB4-B | A4G2 | G6- | G4 |]
%%begintext align
%% For Doug Dreesey
%%endtext

%%sep 1 1 500

%%sep 1 1 500

